!!!COM: Corelli, Arcangelo
!!!OTL: 
!!!ONM: Opus 5, No. 10
!!!OMV: 2
!!!CDT: 1653/2/17/-1713/1/8/
!!!OCY: Italia
**kern	**kern
*clefC	*clefG
*k[b-]	*k[b-]
*F:	*F:
*M4/4	*M4/4
2..r	2..r
8r	8cc
=1	=1
4f	8ff
.	8aa
4e	8ccc
.	8cc
4d	8ff
.	8f
4A	8r
.	16ff
.	16cc
=2	=2
4B-	8dd
.	16cc
.	16dd
4c	4b-
8F	4a
8f	.
8e	8r
8c	8cc
=3	=3
8r	8a
8f	8f
8e	8g
8c	16cc
.	16b-
8r	8a
8F	8f
8E	8r
8C	8g
=4	=4
8F	16a
.	16b
16E	16cc
16F	16e
8G	8.d
8GG	.
.	16b
8C	8cc
8G	8c
[4c	8r
.	8cc
=5	=5
8c]	8dd
16B-	8f
16A	.
4.B-	8B-
.	8dd
.	8ee
16A	8c
16G	.
8A	8r
8AA	8ff
=6	=6
8BB-	8g
8C	8ee
8D	8f
8BB-	8dd
8C	8e
8c	8cc
8A	8f
8F	8a
=7	=7
8B-	16d
.	16e
16A	16f
16B-	16A
8c	8.G
8C	.
.	16e
8F	4f
8c	.
[4f	8r
.	8f
=8	=8
8f]	8b-
16g	8dd
16f	.
8e	8g
8c	16cc
.	16b-
8f	8a
8F	8f
[4c	8r
.	8cc
=9	=9
8c]	8ff
16d	8aa
16c	.
8B	8dd
8G	16gg
.	16ff
8c	8ee
8d	8cc
8e	8r
8E	8gg
=10	=10
8F	8aa
8G	8cc
8A	8ff
8F	8aa
8G	8b
8F	8gg
8E	8cc
8F	8aa
=11	=11
8G	4ee
8F	.
8G	4dd
8GG	.
8C	4cc
8D	.
8E	8r
8C	8g
=12	=12
8F	8a
8G	8c
8A	8f
8F	8a
8G	8B
8F	8g
8E	8cc
8F	8f
=13	=13
4G	8e
.	8cc
4GG	8G
.	8b
4.C	4.c
8r	8g
=14	=14
8r	4cc
8C	.
8E	8r
8C	8cc
8F	8a
16F	8c
16G	.
8A	8f
8FF	8cc
=15	=15
8r	4ff
8F	.
8A	8r
8F	8ff
8B-	8dd
16B-	8f
16c	.
8d	8B-
8BB-	8dd
=16	=16
8r	4gg
8G	.
8B	8r
8G	8gg
8c	8ee
16c	8g
16d	.
8e	8c
8C	8ee
=17	=17
8r	4aa
8A	.
8c#	8r
8A	8aa
8d	8ff
16d	8a
16e	.
8f	8dd
8d	8bb-
=18	=18
8E	8cc
8F	8aa
8D	8b-
8E	8gg
8F	8a
8AA	8ff
8BB	8g
8C#	8ee
=19	=19
8D	8f
8FF	8dd
8GG	8e
8AA	8cc#
8D	4d
16D	.
16E	.
8F	8r
8D	16dd
.	16cc
=20	=20
8G	8b
16G	8dd
16A	.
16B	8g
16A	.
16B	8gg
16G	.
8c	8ee
16C	8g
16D	.
8E	8c
8C	16cc
.	16b-
=21	=21
8F	8a
16F	8cc
16G	.
16A	8f
16G	.
16A	8ff
16F	.
8B-	8dd
16BB-	8f
16C	.
8D	8B-
8BB-	8dd
=22	=22
8C	8ee
16c	8c
16d	.
8e	8r
8C	8ee
8D	8ff
16d	8d
16e	.
8f	8r
8D	8ff
=23	=23
8E	8gg
16e	8e
16f	.
8g	8r
8E	8gg
8F	8aa
16f	8f
16g	.
8a	8r
8F	8aa
=24	=24
8E	8gg
8c	8cc
8D	4ff
8B	.
8C	4ee
8c	.
16d	4r
16c	.
16B-	.
16d	.
=25	=25
8c	8r
8A	8cc
8BB-	16dd
.	16cc
8G	16b-
.	16dd
8AA	8cc
8F	8a
8GG	8B-
8E	8g
=26	=26
8FF	8A
8A	8cc
8B-	8d
8BB-	8dd
8C	8e
8F	16f
.	16g
8C	4g
8CC	.
=27	=27
8FF	4f
8c	.
16d	4.r
16c	.
16B-	.
16d	.
8c	.
8A	8cc
8BB-	16dd
.	16cc
8G	16b-
.	16dd
=28	=28
8AA	8cc
8F	8a
8GG	8B-
8E	8g
8FF	8A
8A	8cc
8B-	8d
8BB-	8dd
=29	=29
8C	8e
8F	16f
.	16g
8C	4g
8CC	.
4.FF	4.f
8r	8r
==	==
*-	*-
!!!RWG: This file only contains pitch and duration data.
!!!RWG: Transposing instruments are not transposed.
!!!RWG: Durations of rests and tied notes may be interpreted.
!!!RWG: Key is interpreted using the Humdrum key tool.
!!!SCA: 
!!!YOR: 
!!!AGN: violin
!!!AFT: stage1
!!!ENC: F. Bennion
!!!END: 1997/04/15
!!!AST: baroque
!!!YEC: Copyright 1994, Center for Computer Assisted Research in the Humanities
!!!YEM: Rights to all derivative electronic formats reserved.
!!!YEM: Refer to licensing agreement for further details.
!!!YEN: United States of America
!!!EED: W.B. Hewlett
!!!KEY: 3377312631
!!!EMD: Converted from MuseData to Humdrum Aug 9, 1999, by Bret Aarden using muse2kern.
!!!VTS: 735143062
